femmes/public/img/illustrations/slide1/blue-ice-skate.svg

<?xml version="1.0" encoding="UTF-8" standalone="no"?>
<svg
   width="170"
   height="248"
   viewBox="0 0 170 248"
   fill="none"
   version="1.1"
   id="svg611"
   sodipodi:docname="blue-ice-skate.svg"
   inkscape:version="1.1.2 (0a00cf5339, 2022-02-04)"
   xmlns:inkscape="http://www.inkscape.org/namespaces/inkscape"
   xmlns:sodipodi="http://sodipodi.sourceforge.net/DTD/sodipodi-0.dtd"
   xmlns="http://www.w3.org/2000/svg"
   xmlns:svg="http://www.w3.org/2000/svg">
  <sodipodi:namedview
     id="namedview613"
     pagecolor="#ffffff"
     bordercolor="#666666"
     borderopacity="1.0"
     inkscape:pageshadow="2"
     inkscape:pageopacity="0.0"
     inkscape:pagecheckerboard="0"
     showgrid="false"
     width="228px"
     inkscape:zoom="1.4728814"
     inkscape:cx="-60.765247"
     inkscape:cy="131.03567"
     inkscape:window-width="1916"
     inkscape:window-height="1053"
     inkscape:window-x="0"
     inkscape:window-y="0"
     inkscape:window-maximized="1"
     inkscape:current-layer="svg611" />
  <g
     clip-path="url(#clip0_378_227)"
     id="g602"
     transform="translate(0,-26)">
    <path
       d="m 2.50364,169.596 c -0.30448,-0.673 -0.55092,-1.375 -0.73602,-2.1 -0.884683,-3.477 -0.24953,-7.185 1.74079,-10.17 l 10.15989,-15.234 143.5387,75.651 5.074,21.639 c 0.839,3.576 -0.445,7.195 -3.351,9.442 -2.906,2.247 -6.73,2.581 -9.981,0.869 L 8.15646,175.598 C 5.64242,174.275 3.65955,172.149 2.50364,169.596 Z M 14.5464,145.549 5.71307,158.795 c -1.57603,2.363 -2.07823,5.296 -1.37805,8.049 0.70079,2.752 2.54278,5.088 5.05533,6.411 L 150.182,247.35 c 2.322,1.222 5.053,0.984 7.128,-0.621 2.076,-1.605 2.993,-4.189 2.394,-6.743 l -4.799,-20.463 z"
       fill="#000000"
       id="path555" />
    <path
       d="m 22.225,164.444 c -0.2471,-0.546 -0.4471,-1.115 -0.5966,-1.704 -0.7179,-2.822 -0.2025,-5.829 1.4119,-8.251 l 8.1592,-12.234 113.6345,59.891 4.035,17.204 c 0.688,2.931 -0.365,5.896 -2.746,7.738 -2.381,1.842 -5.515,2.115 -8.179,0.713 L 26.812,169.315 c -2.0398,-1.074 -3.6487,-2.799 -4.5864,-4.87 z m 9.8524,-18.732 -6.8327,10.246 c -1.1996,1.799 -1.5823,4.033 -1.0498,6.129 0.5335,2.095 1.9368,3.875 3.8501,4.883 l 111.132,58.486 c 1.734,0.913 3.775,0.735 5.326,-0.464 1.55,-1.2 2.235,-3.13 1.788,-5.038 l -3.759,-16.028 z"
       fill="#000000"
       id="path557" />
    <path
       d="m 148.835,67.1947 -32.399,66.4483 46.494,48.481 c 6.409,6.683 7.821,16.719 3.503,24.911 L 158.295,222.477 11.8931,145.317 71.8334,26.612 Z"
       fill="#5bc5f2"
       id="path559" />
    <mask
       id="mask0_378_227"
       maskUnits="userSpaceOnUse"
       x="11"
       y="26"
       width="158"
       height="197">
      <path
         d="m 148.835,67.1947 -32.399,66.4483 46.494,48.481 c 6.409,6.683 7.821,16.719 3.503,24.911 L 158.295,222.477 11.8931,145.317 71.8334,26.612 Z"
         fill="#ffffff"
         id="path561" />
    </mask>
    <g
       mask="url(#mask0_378_227)"
       id="g596">
      <path
         d="M 166.883,213.056 12.0443,119.808 10.678,122.077 165.517,215.324 Z"
         fill="#000000"
         id="path564" />
      <path
         d="m 91.2674,135.757 28.5976,-86.4409 2.515,0.8319 -27.9694,84.54 51.0464,34.597 26.275,5.396 -0.532,2.594 -26.793,-5.502 z"
         fill="#000000"
         id="path566" />
      <path
         d="m 136.756,151.654 -24.75,7.663 0.783,2.53 24.751,-7.663 z"
         fill="#000000"
         id="path568" />
      <path
         d="m 133.77,138.106 -35.1467,10.882 0.7833,2.53 35.1464,-10.882 z"
         fill="#000000"
         id="path570" />
      <path
         d="m 136.122,128.167 -53.8665,6.78 0.3307,2.628 53.8668,-6.78 z"
         fill="#000000"
         id="path572" />
      <path
         d="M 138.51,127.086 86.0774,113 l -0.6873,2.558 52.4329,14.086 z"
         fill="#000000"
         id="path574" />
      <path
         d="M 149.545,113.484 97.1128,99.3985 96.4256,101.956 148.858,116.042 Z"
         fill="#000000"
         id="path576" />
      <path
         d="m 155.456,97.7954 -52.433,-14.0858 -0.687,2.5578 52.432,14.0856 z"
         fill="#000000"
         id="path578" />
      <path
         d="m 161.376,82.0802 -52.432,-14.0858 -0.688,2.5578 52.433,14.0858 z"
         fill="#000000"
         id="path580" />
      <path
         d="m 85.2847,116.333 c 0.7821,1.727 2.8167,2.494 4.5443,1.712 1.7276,-0.782 2.4941,-2.817 1.712,-4.544 -0.7821,-1.728 -2.8167,-2.495 -4.5443,-1.712 -1.7276,0.782 -2.4941,2.816 -1.712,4.544 z"
         fill="#000000"
         id="path582" />
      <path
         d="m 91.8304,101.716 c 0.7821,1.728 2.8166,2.495 4.5443,1.712 1.7276,-0.782 2.4941,-2.816 1.712,-4.5438 -0.7821,-1.7277 -2.8167,-2.4942 -4.5443,-1.712 -1.7277,0.7821 -2.4942,2.8166 -1.712,4.5438 z"
         fill="#000000"
         id="path584" />
      <path
         d="m 96.7255,85.6022 c 0.7821,1.7277 2.8167,2.4942 4.5445,1.7121 1.727,-0.7822 2.494,-2.8167 1.712,-4.5444 -0.782,-1.7276 -2.817,-2.4941 -4.5445,-1.712 -1.7276,0.7821 -2.4941,2.8167 -1.712,4.5443 z"
         fill="#000000"
         id="path586" />
      <path
         d="m 102.821,69.6395 c 0.782,1.7276 2.817,2.4941 4.544,1.712 1.728,-0.7821 2.494,-2.8167 1.712,-4.5443 -0.782,-1.7277 -2.817,-2.4941 -4.544,-1.712 -1.728,0.7821 -2.494,2.8166 -1.712,4.5443 z"
         fill="#000000"
         id="path588" />
      <path
         d="m 81.6059,137.444 c 0.7821,1.728 2.8166,2.494 4.5443,1.712 1.7276,-0.782 2.4941,-2.816 1.712,-4.544 -0.7821,-1.728 -2.8167,-2.494 -4.5443,-1.712 -1.7277,0.782 -2.4942,2.817 -1.712,4.544 z"
         fill="#000000"
         id="path590" />
      <path
         d="m 98.1487,151.02 c 0.7821,1.727 2.8163,2.494 4.5443,1.712 1.728,-0.782 2.494,-2.817 1.712,-4.545 -0.782,-1.727 -2.817,-2.494 -4.5443,-1.712 -1.7276,0.782 -2.4941,2.817 -1.712,4.545 z"
         fill="#000000"
         id="path592" />
      <path
         d="m 111.414,161.364 c 0.782,1.727 2.816,2.494 4.544,1.712 1.728,-0.783 2.494,-2.817 1.712,-4.545 -0.782,-1.727 -2.817,-2.494 -4.544,-1.712 -1.728,0.782 -2.494,2.817 -1.712,4.545 z"
         fill="#000000"
         id="path594" />
    </g>
    <path
       d="m 131.179,75.3549 18.839,-8.9233 c 3.326,-1.5753 7.073,-1.0056 9.78,1.4881 2.707,2.4929 3.582,6.1815 2.285,9.6253 -1.72,4.5644 -6.833,6.879 -11.397,5.1591 z m 28.308,-3.4316 c -0.373,-0.8257 -0.907,-1.5255 -1.483,-2.0559 -1.487,-1.3689 -4.067,-2.3616 -6.852,-1.0427 l -13.198,6.2519 13.666,5.1486 c 3.198,1.2046 6.78,-0.4169 7.985,-3.6147 0.665,-1.7657 0.473,-3.3837 -0.118,-4.6872 z"
       fill="#000000"
       id="path598" />
    <path
       d="m 118.403,60.9978 c -0.926,-2.0454 -1.025,-4.393 -0.201,-6.6456 1.265,-3.456 4.334,-5.6786 8.013,-5.8014 2.361,-0.0784 4.612,0.767 6.338,2.3813 1.725,1.6145 2.718,3.8039 2.797,6.1652 l 0.694,20.834 -15.466,-13.9767 c -0.95,-0.8584 -1.68,-1.865 -2.175,-2.9568 z m 13.755,-6.1635 c -0.332,-0.7334 -0.809,-1.4014 -1.415,-1.9679 -1.209,-1.1309 -2.786,-1.7234 -4.441,-1.6683 -3.08,0.1022 -4.919,2.1667 -5.614,4.0643 -0.694,1.897 -0.621,4.661 1.665,6.7272 l 10.835,9.792 -0.486,-14.5962 c -0.027,-0.8257 -0.214,-1.6206 -0.544,-2.3511 z"
       fill="#000000"
       id="path600" />
  </g>
  <path
     d="M 168.316,246.454 27.3682,175.206 m 43.5072,41.006 -92.7851,-47.603"
     stroke="#5bc5f2"
     stroke-width="3"
     id="path604" />
  <defs
     id="defs609">
    <clipPath
       id="clip0_378_227">
      <rect
         width="238.614"
         height="185.95599"
         fill="#ffffff"
         transform="rotate(65.6433,64.766674,100.90515)"
         id="rect606"
         x="0"
         y="0" />
    </clipPath>
  </defs>
</svg>

<svg width="229" height="295" viewBox="0 0 229 295" fill="none" xmlns="http://www.w3.org/2000/svg">
<g clip-path="url(#clip0_378_227)">
<path d="M2.50364 169.596C2.19916 168.923 1.95272 168.221 1.76762 167.496C0.882937 164.019 1.51809 160.311 3.50841 157.326L13.6683 142.092L157.207 217.743L162.281 239.382C163.12 242.958 161.836 246.577 158.93 248.824C156.024 251.071 152.2 251.405 148.949 249.693L8.15646 175.598C5.64242 174.275 3.65955 172.149 2.50364 169.596ZM14.5464 145.549L5.71307 158.795C4.13704 161.158 3.63484 164.091 4.33502 166.844C5.03581 169.596 6.8778 171.932 9.39035 173.255L150.182 247.35C152.504 248.572 155.235 248.334 157.31 246.729C159.386 245.124 160.303 242.54 159.704 239.986L154.905 219.523L14.5464 145.549Z" fill="black"/>
<path d="M22.225 164.444C21.9779 163.898 21.7779 163.329 21.6284 162.74C20.9105 159.918 21.4259 156.911 23.0403 154.489L31.1995 142.255L144.834 202.146L148.869 219.35C149.557 222.281 148.504 225.246 146.123 227.088C143.742 228.93 140.608 229.203 137.944 227.801L26.812 169.315C24.7722 168.241 23.1633 166.516 22.2256 164.445L22.225 164.444ZM32.0774 145.712L25.2447 155.958C24.0451 157.757 23.6624 159.991 24.1949 162.087C24.7284 164.182 26.1317 165.962 28.045 166.97L139.177 225.456C140.911 226.369 142.952 226.191 144.503 224.992C146.053 223.792 146.738 221.862 146.291 219.954L142.532 203.926L32.0774 145.712Z" fill="black"/>
<path d="M148.835 67.1947L116.436 133.643L162.93 182.124C169.339 188.807 170.751 198.843 166.433 207.035L158.295 222.477L11.8931 145.317L71.8334 26.612L148.835 67.1947Z" fill="#5BC5F2"/>
<mask id="mask0_378_227" style="mask-type:luminance" maskUnits="userSpaceOnUse" x="11" y="26" width="158" height="197">
<path d="M148.835 67.1947L116.436 133.643L162.93 182.124C169.339 188.807 170.751 198.843 166.433 207.035L158.295 222.477L11.8931 145.317L71.8334 26.612L148.835 67.1947Z" fill="white"/>
</mask>
<g mask="url(#mask0_378_227)">
<path d="M166.883 213.056L12.0443 119.808L10.678 122.077L165.517 215.324L166.883 213.056Z" fill="black"/>
<path d="M91.2674 135.757L119.865 49.3161L122.38 50.148L94.4106 134.688L145.457 169.285L171.732 174.681L171.2 177.275L144.407 171.773L91.2674 135.757Z" fill="black"/>
<path d="M136.756 151.654L112.006 159.317L112.789 161.847L137.54 154.184L136.756 151.654Z" fill="black"/>
<path d="M133.77 138.106L98.6233 148.988L99.4066 151.518L134.553 140.636L133.77 138.106Z" fill="black"/>
<path d="M136.122 128.167L82.2555 134.947L82.5862 137.575L136.453 130.795L136.122 128.167Z" fill="black"/>
<path d="M138.51 127.086L86.0774 113L85.3901 115.558L137.823 129.644L138.51 127.086Z" fill="black"/>
<path d="M149.545 113.484L97.1128 99.3985L96.4256 101.956L148.858 116.042L149.545 113.484Z" fill="black"/>
<path d="M155.456 97.7954L103.023 83.7096L102.336 86.2674L154.768 100.353L155.456 97.7954Z" fill="black"/>
<path d="M161.376 82.0802L108.944 67.9944L108.256 70.5522L160.689 84.638L161.376 82.0802Z" fill="black"/>
<path d="M85.2847 116.333C86.0668 118.06 88.1014 118.827 89.829 118.045C91.5566 117.263 92.3231 115.228 91.541 113.501C90.7589 111.773 88.7243 111.006 86.9967 111.789C85.2691 112.571 84.5026 114.605 85.2847 116.333Z" fill="black"/>
<path d="M91.8304 101.716C92.6125 103.444 94.647 104.211 96.3747 103.428C98.1023 102.646 98.8688 100.612 98.0867 98.8842C97.3046 97.1565 95.27 96.39 93.5424 97.1722C91.8147 97.9543 91.0482 99.9888 91.8304 101.716Z" fill="black"/>
<path d="M96.7255 85.6022C97.5076 87.3299 99.5422 88.0964 101.27 87.3143C102.997 86.5321 103.764 84.4976 102.982 82.7699C102.2 81.0423 100.165 80.2758 98.4375 81.0579C96.7099 81.84 95.9434 83.8746 96.7255 85.6022Z" fill="black"/>
<path d="M102.821 69.6395C103.603 71.3671 105.638 72.1336 107.365 71.3515C109.093 70.5694 109.859 68.5348 109.077 66.8072C108.295 65.0795 106.26 64.3131 104.533 65.0952C102.805 65.8773 102.039 67.9118 102.821 69.6395Z" fill="black"/>
<path d="M81.6059 137.444C82.388 139.172 84.4225 139.938 86.1502 139.156C87.8778 138.374 88.6443 136.34 87.8622 134.612C87.0801 132.884 85.0455 132.118 83.3179 132.9C81.5902 133.682 80.8237 135.717 81.6059 137.444Z" fill="black"/>
<path d="M98.1487 151.02C98.9308 152.747 100.965 153.514 102.693 152.732C104.421 151.95 105.187 149.915 104.405 148.187C103.623 146.46 101.588 145.693 99.8607 146.475C98.1331 147.257 97.3666 149.292 98.1487 151.02Z" fill="black"/>
<path d="M111.414 161.364C112.196 163.091 114.23 163.858 115.958 163.076C117.686 162.293 118.452 160.259 117.67 158.531C116.888 156.804 114.853 156.037 113.126 156.819C111.398 157.601 110.632 159.636 111.414 161.364Z" fill="black"/>
</g>
<path d="M131.179 75.3549L150.018 66.4316C153.344 64.8563 157.091 65.426 159.798 67.9197C162.505 70.4126 163.38 74.1012 162.083 77.545C160.363 82.1094 155.25 84.424 150.686 82.7041L131.179 75.3549ZM159.487 71.9233C159.114 71.0976 158.58 70.3978 158.004 69.8674C156.517 68.4985 153.937 67.5058 151.152 68.8247L137.954 75.0766L151.62 80.2252C154.818 81.4298 158.4 79.8083 159.605 76.6105C160.27 74.8448 160.078 73.2268 159.487 71.9233Z" fill="black"/>
<path d="M118.403 60.9978C117.477 58.9524 117.378 56.6048 118.202 54.3522C119.467 50.8962 122.536 48.6736 126.215 48.5508C128.576 48.4724 130.827 49.3178 132.553 50.9321C134.278 52.5466 135.271 54.736 135.35 57.0973L136.044 77.9313L120.578 63.9546C119.628 63.0962 118.898 62.0896 118.403 60.9978ZM132.158 54.8343C131.826 54.1009 131.349 53.4329 130.743 52.8664C129.534 51.7355 127.957 51.143 126.302 51.1981C123.222 51.3003 121.383 53.3648 120.688 55.2624C119.994 57.1594 120.067 59.9234 122.353 61.9896L133.188 71.7816L132.702 57.1854C132.675 56.3597 132.488 55.5648 132.158 54.8343Z" fill="black"/>
</g>
<path d="M168.316 272.454L27.3682 201.206M70.8754 242.212L-21.9097 194.609" stroke="#5BC5F2" stroke-width="3"/>
<defs>
<clipPath id="clip0_378_227">
<rect width="238.614" height="185.956" fill="white" transform="translate(129.98 0.288086) rotate(65.6433)"/>
</clipPath>
</defs>
</svg>
